X: 10
T: Missa Coda di pavon / Agnus Dei
N: Derived from Mar1002e-Missa_Coda_di_pavon-Agnus.krn
C: Johannes Martini
%%abc-version 2.0
%%abcx-abcm2ps-target-version 5.9.1 (29 Sep 2008)
%%abc-creator hum2abc beta
%%abcx-conversion-date 2019/02/17 07:19:40
%%abc-edited-by Jesse Rodin
%%abc-edited-by Chris Gage 11-13-2013
%%abcx-initial-encoding-date 2014/06/21/
%%humdrum-veritas 4256424098
%%humdrum-veritas-data 1963354132
%%linebreak <none>
%%barnumbers 0
L: 1/4
M: 4/2
Q: 1/2=120
%%staves [1 2 3 4]
V: 1 clef=treble
V: 2 clef=treble-8
V: 3 clef=treble-8
V: 4 clef=bass
K: C
[V:1] G6A2 | 
[V:2] d8 | 
[V:3] g8- | 
[V:4] G,8 | 
[V:1] B4c4 | 
[V:2] G8 | 
[V:3] g8 | 
[V:4] E,8 | 
[V:1] d6cB | 
[V:2] A4B4 | 
[V:3] f8- | 
[V:4] D,8 | 
[V:1] c2B2A4 | 
[V:2] A2d3cd2 | 
[V:3] f8 | 
[V:4] z4D,4 | 
[V:1] G3AB2c2 | 
[V:2] B2G2d4 | 
[V:3] g8 | 
[V:4] G,6A,2 | 
[V:1] d3cc4- | 
[V:2] z2d2e2f2 | 
[V:3] f4e4 | 
[V:4] _B,4C4 | 
[V:1] c2B2B3A | 
[V:2] g4g3f | 
[V:3] d8 | 
[V:4] G,8 | 
[V:1] c6d2 | 
[V:2] g2a4gf | 
[V:3] c8 | 
[V:4] E,2F,4E,D, | 
[V:1] e4A2c2- | 
[V:2] g3cc2A2- | 
[V:3] z4c4- | 
[V:4] C,4F,4- | 
[V:1] c2BAG4 | 
[V:2] AGA2B2c2- | 
[V:3] c2d2e4 | 
[V:4] F,4E,4 | 
[V:1] A2c2B2A2- | 
[V:2] cdefg2a2 | 
[V:3] c4d4 | 
[V:4] A,4G,2F,2 | 
[V:1] AGG4^F2 | 
[V:2] d2e2d4 | 
[V:3] B2c2A4 | 
[V:4] G,2C,2D,4 | 
[V:1] G4z4 | 
[V:2] B3cd2c2 | 
[V:3] G8- | 
[V:4] E,2D,C,B,,2C,2- | 
[V:1] D4E2G2- | 
[V:2] d2g3fe2- | 
[V:3] G8 | 
[V:4] C,2B,,2C,3D, | 
[V:1] G2FED4 | 
[V:2] e2dcB3A | 
[V:3] z8 | 
[V:4] E,2F,2G,4 | 
[V:1] E6F2 | 
[V:2] c4A4 | 
[V:3] z4c4 | 
[V:4] C,6D,2 | 
[V:1] G4A4 | 
[V:2] G2g2f3e | 
[V:3] c8 | 
[V:4] E,4F,4 | 
[V:1] B2c2d4 | 
[V:2] d4g4 | 
[V:3] B8 | 
[V:4] G,8 | 
[V:1] e6c2- | 
[V:2] g3fg2a2- | 
[V:3] c8 | 
[V:4] C,8 | 
[V:1] c2A2c2d2 | 
[V:2] agfef4 | 
[V:3] z4c4 | 
[V:4] C4A,4 | 
[V:1] B6G2 | 
[V:2] g2GAB2c2- | 
[V:3] d6e2 | 
[V:4] G,6E,2 | 
[V:1] A2GFE2G2 | 
[V:2] c2B2c3d | 
[V:3] f4g4 | 
[V:4] D,4C,4 | 
[V:1] A2G2c2d2- | 
[V:2] e3fga_b2- | 
[V:3] c2e4f2 | 
[V:4] z2C4_B,2 | 
[V:1] dcc4B2 | 
[V:2] b2a2g4 | 
[V:3] g2e2d4 | 
[V:4] G,2C2G,4 | 
[V:1] c4z4 | 
[V:2] f2f3ef2 | 
[V:3] c8 | 
[V:4] A,8 | 
[V:1] B4B2B2 | 
[V:2] g2fed4 | 
[V:3] z8 | 
[V:4] G,8 | 
[V:1] c2BAG4 | 
[V:2] c6G2- | 
[V:3] e6e2 | 
[V:4] C,8 | 
[V:1] C4D4 | 
[V:2] G2A2_B4 | 
[V:3] e4f2ed | 
[V:4] C,4_B,,4 | 
[V:1] E4G4 | 
[V:2] G8 | 
[V:3] c4B4 | 
[V:4] C,4E,4 | 
[V:1] F8 | 
[V:2] A4B4 | 
[V:3] d8 | 
[V:4] D,4B,,4 | 
[V:1] E8 ||  
[V:2] G8 ||  
[V:3] c8 ||  
[V:4] C,8 ||  
[V:1]  [K:C] [K:clef=treble][M:4/2]G8 | 
[V:2]  [K:C] [K:clef=treble-8][M:4/2]g8 | 
[V:3]  [K:C] [K:clef=treble-8][M:4/2]z8 | 
[V:4]  [K:C] [K:clef=bass][M:4/2]G,3A,B,2C2 | 
[V:1] A8 | 
[V:2] f8 | 
[V:3] z8 | 
[V:4] A,2D3CA,2 | 
[V:1] B8- | 
[V:2] g8 | 
[V:3] z8 | 
[V:4] G,2E,3F,G,2- | 
[V:1] B4A2B2 | 
[V:2] d4f4 | 
[V:3] z8 | 
[V:4] G,2F,2D,4 | 
[V:1] c8 | 
[V:2] e3de2f2- | 
[V:3] z8 | 
[V:4] C,6F,2- | 
[V:1] d8 | 
[V:2] fedcB3A | 
[V:3] z8 | 
[V:4] F,2G,6 | 
[V:1] z4G4 | 
[V:2] c4z2d2 | 
[V:3] z8 | 
[V:4] A,4B,4 | 
[V:1] A4B4 | 
[V:2] e2f2g2e2- | 
[V:3] z8 | 
[V:4] C3B,G,4 | 
[V:1] c2BAG4 | 
[V:2] edd4c2 | 
[V:3] z8 | 
[V:4] z2F,2G,2E,2 | 
[V:1] z2F2G2E2 | 
[V:2] d2f2e2dc | 
[V:3] z8 | 
[V:4] D,4C,4 | 
[V:1] D4C4 | 
[V:2] B4c2A2 | 
[V:3] z8 | 
[V:4] z2G,2A,2C2- | 
[V:1] z2G2A2c2- | 
[V:2] G4z4 | 
[V:3] z8 | 
[V:4] C2B,2C2A,2 | 
[V:1] c2B2c2A2 | 
[V:2] g4e2f2 | 
[V:3] z8 | 
[V:4] G,4C,2F,2 | 
[V:1] G4C2F2 | 
[V:2] e2d2e2dc | 
[V:3] z8 | 
[V:4] G,2B,2A,4 | 
[V:1] G2B2A4 | 
[V:2] B2AG^F4 | 
[V:3] z8 | 
[V:4] G,2D4C2 | 
[V:1] G2d4c2 | 
[V:2] G2B2A3G | 
[V:3] z8 | 
[V:4] B,2A,G,^F,3E, | 
[V:1] B2AG^F3E | 
[V:2] B2c2d4 | 
[V:3] z8 | 
[V:4] G,4D,4 | 
[V:1] G4z4 | 
[V:2] G4z4 | 
[V:3] z8 | 
[V:4] E,2E,4D,C, | 
[V:1] z8 | 
[V:2] d4e2e2- | 
[V:3] z8 | 
[V:4] B,,4C,3D, | 
[V:1] z4d4 | 
[V:2] e2dcB3A | 
[V:3] z8 | 
[V:4] E,2F,2D,4 | 
[V:1] e2e4dc | 
[V:2] c3de2f2 | 
[V:3] z8 | 
[V:4] C,2C4F,2 | 
[V:1] B4c3d | 
[V:2] d4c4 | 
[V:3] z8 | 
[V:4] G,4A,3B, | 
[V:1] e2f2d4 | 
[V:2] z4f4 | 
[V:3] z8 | 
[V:4] C2D3A,B,2 | 
[V:1] c4z4 | 
[V:2] e6e2 | 
[V:3] z8 | 
[V:4] C4z4 | 
[V:1] z8 | 
[V:2] d4c2BA | 
[V:3] z8 | 
[V:4] F4E4- | 
[V:1] z8 | 
[V:2] G2c4B2 | 
[V:3] z8 | 
[V:4] E2E2D4 | 
[V:1] z8 | 
[V:2] c4B2d2- | 
[V:3] z8 | 
[V:4] C3B,G,4 | 
[V:1] z8 | 
[V:2] d2cBA2G2 | 
[V:3] z8 | 
[V:4] B,2A,2C2B,2 | 
[V:1] z8 | 
[V:2] B2AGF2G2- | 
[V:3] z8 | 
[V:4] D2D4CB, | 
[V:1] z8 | 
[V:2] G2^F2G2d2- | 
[V:3] z8 | 
[V:4] A,4G,3F, | 
[V:1] z8 | 
[V:2] dcf2e2g2- | 
[V:3] z8 | 
[V:4] _B,2A,2C3B, | 
[V:1] z8 | 
[V:2] g2e2d2f2- | 
[V:3] z8 | 
[V:4] G,2A,2_B,3A, | 
[V:1] z8 | 
[V:2] f2d2c2e2- | 
[V:3] z8 | 
[V:4] F,2G,2A,3G, | 
[V:1] z8 | 
[V:2] edc4B2 | 
[V:3] z8 | 
[V:4] E,2F,2D,4 | 
[V:1] c8 ||  
[V:2] c8 ||  
[V:3] z8 ||  
[V:4] C,8 ||  
[V:1]  [K:C] [K:clef=treble][M:4/2]z8 | 
[V:2]  [K:C] [K:clef=treble-8][M:4/2]c4d4 | 
[V:3]  [K:C] [K:clef=treble-8][M:4/2]z8 | 
[V:4]  [K:C] [K:clef=bass][M:4/2]C4B,4 | 
[V:1] z4G4 | 
[V:2] e6de | 
[V:3] z8 | 
[V:4] C6B,2 | 
[V:1] A4B4- | 
[V:2] f4g2fe | 
[V:3] z8 | 
[V:4] A,4G,4 | 
[V:1] B2ABc4 | 
[V:2] d4c2e2 | 
[V:3] z8 | 
[V:4] z2G,2A,2C2 | 
[V:1] d2cBA4 | 
[V:2] d2g4^f2 | 
[V:3] z8 | 
[V:4] G,4D4 | 
[V:1] G2B2A2d2- | 
[V:2] g4f4 | 
[V:3] z8 | 
[V:4] G,4D,4 | 
[V:1] d2^c2d4 | 
[V:2] e4d4 | 
[V:3] z8 | 
[V:4] A,4_B,4 | 
[V:1] e4d2B2 | 
[V:2] c4d2e2- | 
[V:3] z8 | 
[V:4] A,4_B,2G,2 | 
[V:1] c2BAG4 | 
[V:2] e2dcB4 | 
[V:3] z8 | 
[V:4] A,2D,2E,2G,2 | 
[V:1] A2B3AG2- | 
[V:2] c2d2B2c2 | 
[V:3] z8 | 
[V:4] F,2D,2E,4 | 
[V:1] G2^F2G4 | 
[V:2] A4G2d2 | 
[V:3] z8 | 
[V:4] D,4D2B,2 | 
[V:1] z2A2B2c2 | 
[V:2] e2f2g2a2 | 
[V:3] z8 | 
[V:4] C2D2G,2z2 | 
[V:1] d2e2f2ed | 
[V:2] _b2agf2a2- | 
[V:3] z8 | 
[V:4] G,4D2CB, | 
[V:1] c2e4d2- | 
[V:2] a2g4f2- | 
[V:3] z8 | 
[V:4] A,2C4D2 | 
[V:1] d2c4B2 | 
[V:2] f2e2d4 | 
[V:3] z8 | 
[V:4] _B,2C2G,4 | 
[V:1] c2A2G2c2- | 
[V:2] c4B2A2 | 
[V:3] z8 | 
[V:4] C,4z4 | 
[V:1] cBA2G2F2 | 
[V:2] G2c2d4 | 
[V:3] z8 | 
[V:4] C,4_B,,4 | 
[V:1] (3:2:2E8z4 | 
[V:2] (3c4g4a4 | 
[V:3] (3:2:2c8c4 | 
[V:4] (3C,4E,4F,4 | 
[V:1] (3D4D4E4- | 
[V:2] (3:2:2g8g4 | 
[V:3] (3B4B4c4 | 
[V:4] (3:2:2G,8C,4- | 
[V:1] (3E4D4C4 | 
[V:2] (3:2:2g8c4 | 
[V:3] (3c4G4A4 | 
[V:4] (3C,4z4F,4 | 
[V:1] (3:2:4G6E2F2G2 | 
[V:2] e2(3:2:4fg2a2_b4 | 
[V:3] (3G4c4d4 | 
[V:4] (3E,4C,4_B,,4 | 
[V:1] (3:2:2E4D8 | 
[V:2] (3:2:2g8g4 | 
[V:3] (3:2:4c6B2B2A2 | 
[V:4] (3:2:2C,4G,8 | 
[V:1] (3:2:2C8z4 | 
[V:2] (3e4c4A4 | 
[V:3] (3:2:2c4e8 | 
[V:4] (3:2:2C,8C4 | 
[V:1] (3G4A4c4 | 
[V:2] (3z4c4c4 | 
[V:3] (3c4f4e4 | 
[V:4] (3C4F,4A,4 | 
[V:1] (3:2:2B8G4 | 
[V:2] (3d4B4c4 | 
[V:3] (3:2:2g8e4 | 
[V:4] (3:2:2G,8C,4 | 
[V:1] (3:2:4A6G2E2D2 | 
[V:2] (3:2:2A8c4- | 
[V:3] (3f4c6B2 | 
[V:4] (3F,6E,2C,4 | 
[V:1] (3:2:4G6^F2F2E2 | 
[V:2] (3:2:2c4d8 | 
[V:3] (3:2:2G4A8 | 
[V:4] (3:2:2E,4D,8 | 
[V:1] (3G4z4A4 | 
[V:2] (3B4A4c4 | 
[V:3] (3G4c4z4 | 
[V:4] (3E,4F,4A,4 | 
[V:1] (3B4z4c4 | 
[V:2] (3:2:2B8A4 | 
[V:3] (3d4e4z4 | 
[V:4] (3G,4E,4A,4 | 
[V:1] (3d4z4e4 | 
[V:2] (3:2:2A8A4 | 
[V:3] (3f6e2c4 | 
[V:4] (3:2:2D,8z4 | 
[V:1] (3f6e2d4 | 
[V:2] (3:2:2a8a4- | 
[V:3] (3:2:2d8f4 | 
[V:4] (3:2:2D,8D,4 | 
[V:1] (3c4z4f4 | 
[V:2] (3:2:2a4f8 | 
[V:3] (3e4d4z4 | 
[V:4] (3A,4_B,4D4 | 
[V:1] (3e4c4d4- | 
[V:2] (3:2:2g4a4_b2(3:2:1a | 
[V:3] (3:2:4g4e4d2f2- | 
[V:4] (3:2:2C8_B,4- | 
[V:1] (3:2:4d4e4d2c2 | 
[V:2] (3:2:4f2g2a4d4 | 
[V:3] (3:2:4f2e2c4f4 | 
[V:4] (3B,4A,4_B,4 | 
[V:1] (3:2:4c6B2B2A2 | 
[V:2] (3:2:2g8g4 | 
[V:3] (3:2:2e4d8 | 
[V:4] (3:2:2C4G,8 | 
[V:1] !fermata!c8 |]  
[V:2] !fermata!g8 |]  
[V:3] !fermata!c8 |]  
[V:4] !fermata!C,8 |]  



